svg/email_search.svg

<svg xmlns="http://www.w3.org/2000/svg" viewBox="0 0 24 24"><path d="M3 4h16a2 2 0 0 1 2 2v4.82c-1-.97-2.3-1.59-3.69-1.76L19 8V6l-8 5-8-5v2l7.62 4.76c-.41.86-.62 1.79-.62 2.74a6.5 6.5 0 0 0 1.81 4.5H3a2 2 0 0 1-2-2V6c0-1.11.89-2 2-2m13.5 7c2.5 0 4.5 2 4.5 4.5 0 .88-.25 1.71-.69 2.4l3.08 3.1L22 22.39l-3.12-3.07c-.69.43-1.51.68-2.38.68-2.5 0-4.5-2-4.5-4.5s2-4.5 4.5-4.5m0 2a2.5 2.5 0 0 0-2.5 2.5 2.5 2.5 0 0 0 2.5 2.5 2.5 2.5 0 0 0 2.5-2.5 2.5 2.5 0 0 0-2.5-2.5"/></svg>

<?xml version="1.0" encoding="UTF-8"?><!DOCTYPE svg PUBLIC "-//W3C//DTD SVG 1.1//EN" "http://www.w3.org/Graphics/SVG/1.1/DTD/svg11.dtd"><svg xmlns="http://www.w3.org/2000/svg" xmlns:xlink="http://www.w3.org/1999/xlink" version="1.1" id="mdi-email-search" width="24" height="24" viewBox="0 0 24 24"><path d="M3,4H19A2,2 0 0,1 21,6V10.82C20,9.85 18.7,9.23 17.31,9.06L19,8V6L11,11L3,6V8L10.62,12.76C10.21,13.62 10,14.55 10,15.5C10,17.18 10.65,18.79 11.81,20H3A2,2 0 0,1 1,18V6C1,4.89 1.89,4 3,4M16.5,11C19,11 21,13 21,15.5C21,16.38 20.75,17.21 20.31,17.9L23.39,21L22,22.39L18.88,19.32C18.19,19.75 17.37,20 16.5,20C14,20 12,18 12,15.5C12,13 14,11 16.5,11M16.5,13A2.5,2.5 0 0,0 14,15.5A2.5,2.5 0 0,0 16.5,18A2.5,2.5 0 0,0 19,15.5A2.5,2.5 0 0,0 16.5,13Z" /></svg>
